icons/solid/calculator.svg

<svg width="24" height="24" viewBox="0 0 24 24" fill="none" xmlns="http://www.w3.org/2000/svg">
<path fill-rule="evenodd" clip-rule="evenodd" d="M4 5C4 3.34315 5.34315 2 7 2H17C18.6569 2 20 3.34315 20 5V19C20 20.6569 18.6569 22 17 22H7C5.34315 22 4 20.6569 4 19V5ZM7 6C7 5.44772 7.44772 5 8 5H16C16.5523 5 17 5.44772 17 6V11C17 11.5523 16.5523 12 16 12H8C7.44772 12 7 11.5523 7 11V6ZM16 14C16.5523 14 17 14.4477 17 15V18C17 18.5523 16.5523 19 16 19C15.4477 19 15 18.5523 15 18V15C15 14.4477 15.4477 14 16 14ZM8 16C8.55228 16 9 15.5523 9 15C9 14.4477 8.55228 14 8 14C7.44772 14 7 14.4477 7 15C7 15.5523 7.44772 16 8 16ZM9 18C9 18.5523 8.55228 19 8 19C7.44772 19 7 18.5523 7 18C7 17.4477 7.44772 17 8 17C8.55228 17 9 17.4477 9 18ZM12 19C12.5523 19 13 18.5523 13 18C13 17.4477 12.5523 17 12 17C11.4477 17 11 17.4477 11 18C11 18.5523 11.4477 19 12 19ZM13 15C13 15.5523 12.5523 16 12 16C11.4477 16 11 15.5523 11 15C11 14.4477 11.4477 14 12 14C12.5523 14 13 14.4477 13 15Z" fill="currentColor"/>
</svg>

<svg width="24" height="24" fill="none" xmlns="http://www.w3.org/2000/svg"><path fill-rule="evenodd" clip-rule="evenodd" d="M4 5a3 3 0 013-3h10a3 3 0 013 3v14a3 3 0 01-3 3H7a3 3 0 01-3-3V5zm3 1a1 1 0 011-1h8a1 1 0 011 1v5a1 1 0 01-1 1H8a1 1 0 01-1-1V6zm9 8a1 1 0 011 1v3a1 1 0 11-2 0v-3a1 1 0 011-1zm-8 2a1 1 0 100-2 1 1 0 000 2zm1 2a1 1 0 11-2 0 1 1 0 012 0zm3 1a1 1 0 100-2 1 1 0 000 2zm1-4a1 1 0 11-2 0 1 1 0 012 0z" fill="currentColor"/></svg>
